!!!SOCIAL_FUNCTION: drunken-man dance songs
!!!PDT:	1943
!!!LING_GROUP: Muskogean
!!!LANG: Non-Tone
Specific Region: Oklahoma, California, Mississippi, Louisiana, Texas, Alabama
!!!REG: Southeast
!!!COM: Anon.
!!!OTL: Drunken-man Dance Song (b)
!!!ODT: <1933//
!!!MPN: Lapintabeseihoke [Kills it Himself, Sidney Wesley]
!!!MPN: Atobaantci [Putting it Back, Mary Hiekman]
!!!MLC: Philadelphia, Mississippi, United States of America
!! Song was recorded in January 1933.
!!!AGN: monody
!!!AMT: irregular
!!!RWG: Transcribed pitches, durations, and meters are only approximate.
**kern
*ICvox
*Imale
*clefF4
*k[b-]
*M2/4
*MM96
=1-
8F
8F
8.F
16G
=2
8F
8F
4F
=3
4c
8A
8A
=4
4A
(8A
8F)
=5
4G
8F
8F+
=6
8F
8F
4F
=7
(8.G
16F)
8F
8G
=8
4F
8F
8r
=9
4F
8F
8F
=10
8F
8F
4F
=11
4A
8F
8F
=12
4A
(8A
8F)
=13
4G
8F
8F+
=14
8F
8F
4F
=15
8.A
16F
8F
8G
=16
4F
8F
8r
=17
4F
8F
8F
=18
8F
8F
4F
=19
4A
8F
8F
=20
4A
(8A
16F)
16r
=21
4G
(8G
8F)
=22
8F
8F
4F
=23
(8.G
16F)
8F
8G
=24
4F
8F
8r
=25
4F
8F
8F
=26
8F
8F
4F
=27
4c
8A
8A
=28
4A
(8A
8F)
=29
4G
8F
8F+
=30
8F
8F
4F
=31
(8.G
16F)
8F
8G
=32
4F
8F
8r
=33
4F
8F
8F
=34
8F
8F
4F
=35
4A
8F
8F
=36
4A
(8A
8F)
=37
4G
8F
8F+
=38
8F
8F
4F
=39
8.A
16F
8F
8G
=40
4F
8F
8r
=41
4F
8F
8F
=42
8F
8F
4F
=43
4A
8F
8F
=44
4A
(8A
16F)
16r
=45
4G
(8G
8F)
=46
8F
8F
4F
=47
(8.G
16F)
8F
8G
=48
4F
8F
8r
=49
4F
8F
8F
=50
8F
8F
4F
==
*-
!!!CNT: Choctaw
!!!TXO: Choctaw
!!!OCY: United States
!!!OCL: Frances Densmore
!!!YOR: Frances Densmore, "Choctaw Music"
!!!YOR: Bulletin 136, page 144, No. 22
!!!PPR: Smithsonian Institution, Bureau of American Ethnology
!!!PPR: Government Printing Office
!!!PDT: 1943
!!!PPP: Washington, DC, United States of America
!!!YEC: Electronic Copyright 2000 David Huron
!!!YER: August 2000
!!!YEN: United States of America
!!!ENC: David Huron
!!!RDT: August 27, 2000
!!!EEV: Release 1.0
!!!AIN: vox
